X: 705
T: Jin lanfang
L: 1/8
M: 2/4
K: F
G2G c [I:setbarnb 1]| 
c Ac2 | 
G2G c | 
A G F D/ F/ | 
G2G A | 
G2G A | 
A2d2 | 
c> d c A | 
G2G c | 
A G F D/ F/ | 
G2G A | 
C C C D | 
D c A G | 
F3D | 
F4 | 
A2A F | 
G A G F | 
D A,C2- | 
C2D D | 
G2G z | 
A2c2 | 
d> f d c | 
c2A2 | 
G4 |]

@@@ Tune index: 9579
